public/images/icons/wiki/humes.svg

<svg fill="none" height="300" stroke-width="5" width="300" xmlns="http://www.w3.org/2000/svg"><g fill="none" stroke-width="5"><path d="m120 135a0 60 0 0 1 0 60 30 45 0 0 1 30 45 30-45 0 0 1 30-45 0-60 0 0 1 0-60m-30-75v165" stroke="#fff" stroke-linecap="round" stroke-linejoin="round"/><path d="m120 150 30-30 30 30m-60 0v30l30-30 30 30m-60-60 30-30 30 30m-60 75v-105l30-30 30 30v105" stroke="#eee"/></g></svg>

<svg xmlns="http://www.w3.org/2000/svg" baseProfile="full" version="1.1" width="300px" height="300px" style="fill: none; width: 300px; height: 300px; stroke-width: 5;"><path d="" style="stroke-width: 10; stroke-linecap: round; stroke-linejoin: round; stroke: rgb(68, 68, 68); fill: none;"></path><path d="M120,135 A0,60 0 0,1 120,195 A30,45 0 0,1 150,240 A30,-45 0 0,1 180,195 A0,-60 0 0,1 180,135 M150,60 L150,60 L150,225 " style="stroke-width: 5; stroke-linecap: round; stroke-linejoin: round; stroke: rgb(255, 255, 255); fill: none;"></path><path d="M120,150 L120,150 L150,120 L180,150 M120,150 L120,150 L120,180 L150,150 L180,180 M120,120 L120,120 L150,90 L180,120 M120,195 L120,195 L120,90 L150,60 L180,90 L180,195 " style="stroke-width: 5; stroke-linecap: butt; stroke-linejoin: miter; stroke: rgb(238, 238, 238); fill: none;"></path></svg>
